img/Scissors-roboot.svg

<?xml version="1.0" encoding="utf-8"?>
<svg version="1.1" x="0px" y="0px" viewBox="0 0 42 52.5" style="enable-background:new 0 0 42 42;" xmlns="http://www.w3.org/2000/svg">
  <style type="text/css">
	.st0{fill-rule:evenodd;clip-rule:evenodd;}
</style>
  <path d="M 12.654 14.36 L 14.444 16.86 C 15.204 17.95 16.834 16.75 16.074 15.67 L 14.284 13.17 L 12.654 14.36 Z M 10.154 10.83 L 12.104 13.54 L 13.734 12.4 L 11.784 9.63 L 10.154 10.83 Z M 7.824 7.57 L 9.614 10.07 L 11.244 8.88 L 9.454 6.38 C 8.684 5.29 7.004 6.43 7.824 7.57 Z M 17.534 19.73 C 18.074 19.46 18.294 18.75 18.024 18.21 C 17.754 17.72 17.044 17.5 16.504 17.78 C 15.964 18.05 15.794 18.76 16.074 19.25 C 16.344 19.78 16.994 20 17.534 19.73 Z M 24.804 33.46 L 24.474 33.73 C 24.144 33.95 24.094 34.38 24.314 34.71 L 26.374 37.64 C 26.644 37.97 27.084 38.02 27.404 37.8 L 35.324 32.16 C 35.654 31.89 35.704 31.45 35.484 31.13 L 33.424 28.25 C 33.204 27.92 32.774 27.82 32.444 28.09 L 32.114 28.31 C 32.224 29.02 32.164 29.83 31.954 30.59 C 31.144 33.09 28.214 34.66 25.714 33.85 C 25.404 33.78 25.134 33.62 24.804 33.46 Z M 27.904 30.42 C 28.614 30.04 28.884 29.12 28.504 28.41 C 28.124 27.7 27.254 27.38 26.494 27.76 C 25.784 28.14 25.514 29.06 25.894 29.77 C 26.274 30.53 27.144 30.8 27.904 30.42 Z M 22.314 30.15 L 18.134 27.33 L 15.634 27.82 L 19.324 30.26 C 20.304 30.86 21.384 31.02 22.414 30.59 C 22.364 30.42 22.364 30.31 22.314 30.15 Z M 18.514 24.45 L 17.484 25.21 C 17.324 25.32 17.054 25.32 16.884 25.21 L 14.554 23.47 C 14.014 24.56 14.064 25.97 14.774 27 L 18.194 26.35 L 18.524 26.46 L 22.214 28.9 C 22.214 28.47 22.324 28.03 22.434 27.6 L 18.514 24.45 Z M 27.034 16.09 L 27.634 19.35 C 27.684 19.51 27.584 19.73 27.414 19.84 L 26.434 20.55 L 28.174 24.24 C 28.884 24.35 29.534 24.67 30.124 25.11 C 30.934 24.08 30.664 22.72 30.234 21.58 L 28.714 17.67 C 28.384 16.91 27.794 16.42 27.034 16.09 Z M 23.454 25.75 L 21.064 22.66 L 20.464 23.04 C 20.304 23.2 19.974 23.15 19.864 22.93 L 17.964 20.65 C 17.154 21.19 15.794 22.01 15.144 22.71 L 17.204 24.23 L 18.234 23.47 C 18.394 23.36 18.614 23.36 18.774 23.47 L 22.794 26.67 C 23.014 26.35 23.234 26.08 23.454 25.75 Z M 24.864 24.72 L 22.474 21.03 C 22.314 20.81 22.364 20.54 22.584 20.38 L 23.184 19.95 L 21.994 17.78 L 18.734 20.06 L 20.304 22.01 L 20.844 21.63 C 21.064 21.47 21.334 21.52 21.494 21.68 L 24.154 25.1 C 24.374 24.99 24.584 24.83 24.864 24.72 Z M 22.744 17.23 L 24.214 19.89 C 24.324 20.11 24.264 20.38 24.054 20.49 L 23.514 20.87 L 25.734 24.34 C 26.164 24.18 26.604 24.12 27.094 24.12 L 25.414 20.59 C 25.304 20.37 25.364 20.1 25.574 19.99 L 26.664 19.18 L 26.014 15.87 C 25.204 15.76 24.444 16.03 23.794 16.47 L 22.744 17.23 Z M 4.564 16.09 L 5.864 14.52 L 4.234 13.11 C 3.254 12.24 1.844 13.76 2.874 14.63 L 4.564 16.09 Z M 9.614 17.77 L 8.314 19.29 L 9.994 20.7 C 11.024 21.62 12.274 20.05 11.294 19.18 L 9.614 17.77 Z M 7.604 18.64 L 8.904 17.12 L 6.624 15.17 L 5.324 16.69 L 7.604 18.64 Z M 13.464 22.93 C 14.004 22.66 14.224 22.01 13.954 21.46 C 13.684 20.92 12.974 20.7 12.434 20.97 C 11.894 21.24 11.674 21.95 12.004 22.49 C 12.274 23.04 12.924 23.2 13.464 22.93 Z M 26.004 32.91 C 28.124 33.62 30.404 32.42 31.054 30.31 C 31.704 28.14 30.514 25.91 28.394 25.26 C 26.274 24.61 23.994 25.75 23.344 27.92 C 22.694 29.98 23.824 32.26 26.004 32.91 Z M 28.334 31.23 C 27.144 31.88 25.674 31.39 25.024 30.25 C 24.424 29.06 24.864 27.54 26.054 26.94 C 27.244 26.29 28.714 26.78 29.364 27.97 C 29.964 29.17 29.524 30.64 28.334 31.23 Z"/>
  <text x="0" y="57" fill="#000000" font-size="5px" font-weight="bold" font-family="'Helvetica Neue', Helvetica, Arial-Unicode, Arial, Sans-serif" style="white-space: pre;">Created by Besokpagi</text>
  <text x="0" y="62" fill="#000000" font-size="5px" font-weight="bold" font-family="'Helvetica Neue', Helvetica, Arial-Unicode, Arial, Sans-serif" style="white-space: pre;">from the Noun Project</text>
</svg>

<svg width="42" height="52.49999999999999" xmlns="http://www.w3.org/2000/svg" version="1.1">

 <g>
  <title>Layer 1</title>
  <path fill="#ffffff" id="svg_1" d="m12.654,14.36l1.79,2.5c0.76,1.09 2.39,-0.11 1.63,-1.19l-1.79,-2.5l-1.63,1.19zm-2.5,-3.53l1.95,2.71l1.63,-1.14l-1.95,-2.77l-1.63,1.2zm-2.33,-3.26l1.79,2.5l1.63,-1.19l-1.79,-2.5c-0.77,-1.09 -2.45,0.05 -1.63,1.19zm9.71,12.16c0.54,-0.27 0.76,-0.98 0.49,-1.52c-0.27,-0.49 -0.98,-0.71 -1.52,-0.43c-0.54,0.27 -0.71,0.98 -0.43,1.47c0.27,0.53 0.92,0.75 1.46,0.48zm7.27,13.73l-0.33,0.27c-0.33,0.22 -0.38,0.65 -0.16,0.98l2.06,2.93c0.27,0.33 0.71,0.38 1.03,0.16l7.92,-5.64c0.33,-0.27 0.38,-0.71 0.16,-1.03l-2.06,-2.88c-0.22,-0.33 -0.65,-0.43 -0.98,-0.16l-0.33,0.22c0.11,0.71 0.05,1.52 -0.16,2.28c-0.81,2.5 -3.74,4.07 -6.24,3.26c-0.31,-0.07 -0.58,-0.23 -0.91,-0.39zm3.1,-3.04c0.71,-0.38 0.98,-1.3 0.6,-2.01c-0.38,-0.71 -1.25,-1.03 -2.01,-0.65c-0.71,0.38 -0.98,1.3 -0.6,2.01c0.38,0.76 1.25,1.03 2.01,0.65zm-5.59,-0.27l-4.18,-2.82l-2.5,0.49l3.69,2.44c0.98,0.6 2.06,0.76 3.09,0.33c-0.05,-0.17 -0.05,-0.28 -0.1,-0.44zm-3.8,-5.7l-1.03,0.76c-0.16,0.11 -0.43,0.11 -0.6,0l-2.33,-1.74c-0.54,1.09 -0.49,2.5 0.22,3.53l3.42,-0.65l0.33,0.11l3.69,2.44c0,-0.43 0.11,-0.87 0.22,-1.3l-3.92,-3.15zm8.52,-8.36l0.6,3.26c0.05,0.16 -0.05,0.38 -0.22,0.49l-0.98,0.71l1.74,3.69c0.71,0.11 1.36,0.43 1.95,0.87c0.81,-1.03 0.54,-2.39 0.11,-3.53l-1.52,-3.91c-0.33,-0.76 -0.92,-1.25 -1.68,-1.58zm-3.58,9.66l-2.39,-3.09l-0.6,0.38c-0.16,0.16 -0.49,0.11 -0.6,-0.11l-1.9,-2.28c-0.81,0.54 -2.17,1.36 -2.82,2.06l2.06,1.52l1.03,-0.76c0.16,-0.11 0.38,-0.11 0.54,0l4.02,3.2c0.22,-0.32 0.44,-0.59 0.66,-0.92zm1.41,-1.03l-2.39,-3.69c-0.16,-0.22 -0.11,-0.49 0.11,-0.65l0.6,-0.43l-1.19,-2.17l-3.26,2.28l1.57,1.95l0.54,-0.38c0.22,-0.16 0.49,-0.11 0.65,0.05l2.66,3.42c0.22,-0.11 0.43,-0.27 0.71,-0.38zm-2.12,-7.49l1.47,2.66c0.11,0.22 0.05,0.49 -0.16,0.6l-0.54,0.38l2.22,3.47c0.43,-0.16 0.87,-0.22 1.36,-0.22l-1.68,-3.53c-0.11,-0.22 -0.05,-0.49 0.16,-0.6l1.09,-0.81l-0.65,-3.31c-0.81,-0.11 -1.57,0.16 -2.22,0.6l-1.05,0.76zm-18.18,-1.14l1.3,-1.57l-1.63,-1.41c-0.98,-0.87 -2.39,0.65 -1.36,1.52l1.69,1.46zm5.05,1.68l-1.3,1.52l1.68,1.41c1.03,0.92 2.28,-0.65 1.3,-1.52l-1.68,-1.41zm-2.01,0.87l1.3,-1.52l-2.28,-1.95l-1.3,1.52l2.28,1.95zm5.86,4.29c0.54,-0.27 0.76,-0.92 0.49,-1.47c-0.27,-0.54 -0.98,-0.76 -1.52,-0.49c-0.54,0.27 -0.76,0.98 -0.43,1.52c0.27,0.55 0.92,0.71 1.46,0.44zm12.54,9.98c2.12,0.71 4.4,-0.49 5.05,-2.6c0.65,-2.17 -0.54,-4.4 -2.66,-5.05c-2.12,-0.65 -4.4,0.49 -5.05,2.66c-0.65,2.06 0.48,4.34 2.66,4.99zm2.33,-1.68c-1.19,0.65 -2.66,0.16 -3.31,-0.98c-0.6,-1.19 -0.16,-2.71 1.03,-3.31c1.19,-0.65 2.66,-0.16 3.31,1.03c0.6,1.2 0.16,2.67 -1.03,3.26z"/>
  <text id="svg_2" font-family="'Helvetica Neue', Helvetica, Arial-Unicode, Arial, Sans-serif" font-weight="bold" font-size="5px" fill="#000000" y="57" x="0">Created by Besokpagi</text>
  <text id="svg_3" font-family="'Helvetica Neue', Helvetica, Arial-Unicode, Arial, Sans-serif" font-weight="bold" font-size="5px" fill="#000000" y="62" x="0">from the Noun Project</text>
 </g>
</svg>
